ext_icon.svg

<svg xmlns="http://www.w3.org/2000/svg" xmlns:xlink="http://www.w3.org/1999/xlink" aria-hidden="true" focusable="false" width="2em" height="2em" style="-ms-transform: rotate(360deg); -webkit-transform: rotate(360deg); transform: rotate(360deg);" preserveAspectRatio="xMidYMid meet" viewBox="0 0 24 24"><path d="M14.923 8.526H9.077C7.93 8.526 7 9.446 7 10.58v2.89c0 1.135.93 2.054 2.077 2.054h5.846c1.147 0 2.077-.92 2.077-2.054v-2.89c0-1.135-.93-2.054-2.077-2.054zm-1.404 3.64l-2.735 1.29a.11.11 0 0 1-.157-.099v-2.66a.11.11 0 0 1 .16-.097l2.734 1.37a.11.11 0 0 1-.002.196z" fill="#626262"/><path d="M6 4a2 2 0 0 0-2 2v12a2 2 0 0 0 2 2h12a2 2 0 0 0 2-2V6a2 2 0 0 0-2-2H6zm0-2h12a4 4 0 0 1 4 4v12a4 4 0 0 1-4 4H6a4 4 0 0 1-4-4V6a4 4 0 0 1 4-4z" fill="#626262"/></svg>

<?xml version="1.0" encoding="UTF-8" standalone="no"?>
<!DOCTYPE svg PUBLIC "-//W3C//DTD SVG 1.1//EN" "http://www.w3.org/Graphics/SVG/1.1/DTD/svg11.dtd">
<svg width="100%" height="100%" viewBox="0 0 24 24" version="1.1" xmlns="http://www.w3.org/2000/svg" xmlns:xlink="http://www.w3.org/1999/xlink" xml:space="preserve" xmlns:serif="http://www.serif.com/" style="fill-rule:evenodd;clip-rule:evenodd;stroke-linejoin:round;stroke-miterlimit:2;">
    <path d="M14.923,8.526L9.077,8.526C7.93,8.526 7,9.446 7,10.58L7,13.47C7,14.605 7.93,15.524 9.077,15.524L14.923,15.524C16.07,15.524 17,14.604 17,13.47L17,10.58C17,9.445 16.07,8.526 14.923,8.526ZM13.519,12.166L10.784,13.456C10.769,13.463 10.753,13.467 10.737,13.467C10.677,13.467 10.627,13.417 10.627,13.357L10.627,10.697C10.628,10.637 10.677,10.588 10.737,10.588C10.754,10.588 10.772,10.592 10.787,10.6L13.521,11.97C13.557,11.989 13.58,12.027 13.58,12.067C13.58,12.109 13.556,12.147 13.519,12.166Z" style="fill:rgb(98,98,98);fill-rule:nonzero;"/>
    <path d="M20,4L4,4L4,20L20,20L20,4ZM2,2L22,2L22,22L2,22L2,2Z" style="fill:rgb(98,98,98);fill-rule:nonzero;"/>
</svg>
